X:5064
T:Farewell to Ryan's Fancy
R:reel
C:Jerry Holland, SOCAN
O:20th Century Cape Breton
S:Tune ofthe Month, December 1999
D:Here and There, Dennis Ryan (Jerry is the guest fiddler)
A:<http://www.jerryholland.com>
N:Contacts ...
N:..... Jerry Holland <jerry@cranfordpub.com>
N:Tune books, related recordings
N:..... Cranford Publications <http://www.cranfordpub.com>
H:Copyrights - www.fiddlesticksmusic.com (SOCAN)
Z:Paul Stewart Cranford 
L:1/8
Q:333
M:C|
K:D
ag|f2 eg fdAG|FAGE Ddef|g2 fg efde|cdBc Abag|!
(3fgf eg fdAG|FAGE Ddef|g2 fg efde|(3cBA fe de:|!
|:fg|a2 fa b2 gb|bafd Adfa|g2 fg efde|cdBc Aefg|!
a2 fa b2 gb|bafd Adfa|(3gag fg efde|(3cBA fe de:|]!
